packages/sights/assets/overlays/XyeyZlaU.svg

<svg width="500" height="375" viewBox="0 0 500 375" fill="none" xmlns="http://www.w3.org/2000/svg">
<path d="M428.85 136.484L381.92 46.974L379.32 41.974L359.14 29.824C270.14 10.824 163.78 25.234 163.78 25.234C132.29 31.654 120.06 42.044 120.06 42.044L117.67 46.634L75.12 129.754L69 141.674L40 169.504V175.004L42.75 182.004L46.42 211.354C46.42 211.354 43.36 248.354 46.42 259.964L53.42 281.674L54.03 297.574C54.03 297.574 64.27 331.204 107.38 340.374L117.93 347.714L125.72 351.384C125.72 351.384 301.83 360.094 369.72 351.384L380.57 348.324L390.36 340.684C390.36 340.684 435.3 333.494 444.47 295.894V282.164L454.1 261.524V213.824L456.85 183.554L460.06 172.084L428.85 136.484Z" stroke="white" stroke-miterlimit="10"/>
<path d="M117.67 46.6339C117.67 46.6339 239.59 25.5039 381.9 46.9739" stroke="white" stroke-miterlimit="10"/>
<path d="M107.779 65.9839C114.656 58.8661 123.91 54.5242 133.779 53.7839C133.779 53.7839 268.299 45.6739 370.109 53.7839C370.109 53.7839 382.109 55.3639 392.839 67.8739" stroke="white" stroke-miterlimit="10"/>
<path d="M59.5599 151.694V155.474L61.0499 164.304L66.5599 166.594L119.14 179.894L123.27 182.184L131.68 190.594V193.194C131.68 193.194 122.68 205.884 116.85 210.004L112.26 212.604C112.26 212.604 87.0399 210.604 80.7699 209.704C80.7699 209.704 74.6599 209.854 72.8199 211.994L65.0299 216.124C65.0299 216.124 48.1299 210.614 45.6699 205.574" stroke="white" stroke-miterlimit="10"/>
<path d="M438.88 147.944L442.38 158.454L441.38 163.154L433.92 166.714L377.52 181.714L370.41 190.204V194.564L383.67 209.704L388.67 211.074C388.67 211.074 407.47 210.394 419.4 208.784C419.4 208.784 424.9 207.864 431.78 213.604L436.59 216.354C436.59 216.354 449.38 211.974 454.79 205.354" stroke="white" stroke-miterlimit="10"/>
<path d="M75.121 129.754C75.121 129.754 47.501 150.824 250.331 147.944C250.331 147.944 422.251 152.944 425.331 129.754" stroke="white" stroke-miterlimit="10"/>
<path d="M173.15 189.984C173.15 189.984 252.03 193.654 322.04 189.984" stroke="white" stroke-miterlimit="10"/>
<path d="M65.0293 216.124L67.0293 225.524C67.0293 225.524 89.5093 254.184 92.4093 256.524C92.4093 256.524 97.1493 262.024 107.079 263.704C107.079 263.704 266.079 281.894 389.889 263.704C397.213 262.447 404.041 259.175 409.609 254.254L435.669 222.384L436.669 216.384" stroke="white" stroke-miterlimit="10"/>
<path d="M176.92 300.964L180.14 323.744H320.92L324.29 300.964" stroke="white" stroke-miterlimit="10"/>
<path d="M89.8203 334.684C89.8203 334.684 102.82 333.684 112.99 324.354C112.99 324.354 139.36 300.624 150.13 300.274C150.13 300.274 283.63 303.564 345.99 300.274C345.99 300.274 358.53 299.584 371.83 311.364C371.83 311.364 392.31 335.084 406.07 334.684L410.92 333.924" stroke="white" stroke-miterlimit="10"/>
</svg>

<svg width="500" height="375" fill="none" xmlns="http://www.w3.org/2000/svg"><path d="m428.85 136.484-46.93-89.51-2.6-5-20.18-12.15c-89-19-195.36-4.59-195.36-4.59-31.49 6.42-43.72 16.81-43.72 16.81l-2.39 4.59-42.55 83.12-6.12 11.92-29 27.83v5.5l2.75 7 3.67 29.35s-3.06 37 0 48.61l7 21.71.61 15.9s10.24 33.63 53.35 42.8l10.55 7.34 7.79 3.67s176.11 8.71 244 0l10.85-3.06 9.79-7.64s44.94-7.19 54.11-44.79v-13.73l9.63-20.64v-47.7l2.75-30.27 3.21-11.47-31.21-35.6Z" stroke="#fff" stroke-miterlimit="10"/><path d="M117.67 46.634s121.92-21.13 264.23.34M107.779 65.984a40.351 40.351 0 0 1 26-12.2s134.52-8.11 236.33 0c0 0 12 1.58 22.73 14.09M59.56 151.694v3.78l1.49 8.83 5.51 2.29 52.58 13.3 4.13 2.29 8.41 8.41v2.6s-9 12.69-14.83 16.81l-4.59 2.6s-25.22-2-31.49-2.9c0 0-6.11.15-7.95 2.29l-7.79 4.13s-16.9-5.51-19.36-10.55M438.88 147.944l3.5 10.51-1 4.7-7.46 3.56-56.4 15-7.11 8.49v4.36l13.26 15.14 5 1.37s18.8-.68 30.73-2.29c0 0 5.5-.92 12.38 4.82l4.81 2.75s12.79-4.38 18.2-11M75.121 129.754s-27.62 21.07 175.21 18.19c0 0 171.92 5 175-18.19M173.15 189.984s78.88 3.67 148.89 0M65.03 216.124l2 9.4s22.48 28.66 25.38 31c0 0 4.74 5.5 14.669 7.18 0 0 159 18.19 282.81 0a39.992 39.992 0 0 0 19.72-9.45l26.06-31.87 1-6M176.92 300.964l3.22 22.78h140.78l3.37-22.78" stroke="#fff" stroke-miterlimit="10"/><path d="M89.82 334.684s13-1 23.17-10.33c0 0 26.37-23.73 37.14-24.08 0 0 133.5 3.29 195.86 0 0 0 12.54-.69 25.84 11.09 0 0 20.48 23.72 34.24 23.32l4.85-.76" stroke="#fff" stroke-miterlimit="10"/></svg>
